svg/blobs-icons/no-decorations/ketchup-bottle.svg

<svg xmlns="http://www.w3.org/2000/svg" xmlns:xlink="http://www.w3.org/1999/xlink" preserveAspectRatio="xMidYMid" width="89" height="217" viewBox="0 0 89 217"><defs><style>.cls-3{fill:#ff3a2f}.cls-4{fill:#020403;opacity:.35}</style></defs><g id="group-67svg"><path d="M75.242 61.98s0-10.602.0-10.602C75.242 46.645 71.404 42.811 66.673 42.811H56.786S51.458.012 51.458.012s-7.075.0-7.075.0-7.075.0-7.075.0-5.329 42.799-5.329 42.799-9.884.0-9.884.0c-4.733.0-8.57 3.834-8.57 8.567V61.98C5.759 63.901-.008 70.897-.008 79.258V199.074C-.008 208.912 7.97 216.891 17.808 216.891h53.15C72.87 216.891 74.708 216.58 76.434 216.024 83.593 213.71 88.773 206.999 88.773 199.074V79.258C88.773 70.897 83.008 63.902 75.242 61.98z" id="path-1" class="cls-3" fill-rule="evenodd"/><path d="M75.242 61.98s0-10.602.0-10.602C75.242 46.644 71.404 42.811 66.673 42.811H56.786S51.458.011 51.458.011s-7.075.0-7.075.0-7.075.0-7.075.0-.811 6.516-.811 6.516 4.517 36.284 4.517 36.284 9.886.0 9.886.0c4.731.0 8.57 3.833 8.57 8.567V61.98C67.236 63.902 73.001 70.896 73.001 79.258V199.074C73.001 206.998 67.82 213.709 60.662 216.023 58.935 216.58 57.097 216.89 55.185 216.89H70.958C72.87 216.89 74.708 216.58 76.434 216.023 83.593 213.709 88.774 206.998 88.774 199.074V79.258C88.774 70.896 83.008 63.902 75.242 61.98z" id="path-2" class="cls-4" fill-rule="evenodd"/></g></svg>

<svg xmlns="http://www.w3.org/2000/svg" xmlns:xlink="http://www.w3.org/1999/xlink" preserveAspectRatio="xMidYMid" width="89" height="217" viewBox="0 0 89 217">
  <defs>
    <style>

      .cls-3 {
        fill: #ff3a2f;
      }

      .cls-4 {
        fill: #020403;
        opacity: 0.35;
      }
    </style>
  </defs>
  <g id="group-67svg">
    <path d="M75.242,61.980 C75.242,61.980 75.242,51.378 75.242,51.378 C75.242,46.645 71.404,42.811 66.673,42.811 C66.673,42.811 56.786,42.811 56.786,42.811 C56.786,42.811 51.458,0.012 51.458,0.012 C51.458,0.012 44.383,0.012 44.383,0.012 C44.383,0.012 37.308,0.012 37.308,0.012 C37.308,0.012 31.979,42.811 31.979,42.811 C31.979,42.811 22.095,42.811 22.095,42.811 C17.362,42.811 13.525,46.645 13.525,51.378 C13.525,51.378 13.525,61.980 13.525,61.980 C5.759,63.901 -0.008,70.897 -0.008,79.258 C-0.008,79.258 -0.008,199.074 -0.008,199.074 C-0.008,208.912 7.970,216.891 17.808,216.891 C17.808,216.891 70.958,216.891 70.958,216.891 C72.870,216.891 74.708,216.580 76.434,216.024 C83.593,213.710 88.773,206.999 88.773,199.074 C88.773,199.074 88.773,79.258 88.773,79.258 C88.773,70.897 83.008,63.902 75.242,61.980 Z" id="path-1" class="cls-3" fill-rule="evenodd"/>
    <path d="M75.242,61.980 C75.242,61.980 75.242,51.378 75.242,51.378 C75.242,46.644 71.404,42.811 66.673,42.811 C66.673,42.811 56.786,42.811 56.786,42.811 C56.786,42.811 51.458,0.011 51.458,0.011 C51.458,0.011 44.383,0.011 44.383,0.011 C44.383,0.011 37.308,0.011 37.308,0.011 C37.308,0.011 36.497,6.527 36.497,6.527 C36.497,6.527 41.014,42.811 41.014,42.811 C41.014,42.811 50.900,42.811 50.900,42.811 C55.631,42.811 59.470,46.644 59.470,51.378 C59.470,51.378 59.470,61.980 59.470,61.980 C67.236,63.902 73.001,70.896 73.001,79.258 C73.001,79.258 73.001,199.074 73.001,199.074 C73.001,206.998 67.820,213.709 60.662,216.023 C58.935,216.580 57.097,216.890 55.185,216.890 C55.185,216.890 70.958,216.890 70.958,216.890 C72.870,216.890 74.708,216.580 76.434,216.023 C83.593,213.709 88.774,206.998 88.774,199.074 C88.774,199.074 88.774,79.258 88.774,79.258 C88.774,70.896 83.008,63.902 75.242,61.980 Z" id="path-2" class="cls-4" fill-rule="evenodd"/>
  </g>
</svg>
